assets/icons/traton/notification_inactive.svg

<svg xmlns="http://www.w3.org/2000/svg" width="32" height="32" viewBox="0 0 32 32" fill="none">
<path d="M20 30H12V28H20V30Z" fill="#001D21" />
<path d="M27.9971 26.583L26.583 27.9971L4.00293 5.41699L5.41699 4.00293L27.9971 26.583Z" fill="#001D21" />
<path d="M9 13.2422V20.5703L7.03027 22L7 22.0205V24H19.7568L21.7568 26H5V21L7 19.5498V13C7 12.4499 7.05024 11.9111 7.14551 11.3877L9 13.2422Z" fill="#001D21" />
<path d="M17 4.06055C21.4898 4.55067 25 8.38013 25 13V19.5498L27 21V22.7568L23 18.7568V13C23 9.14012 19.8599 6.00013 16 6C14.3863 6 12.8991 6.54996 11.7139 7.4707L10.292 6.0498C11.6042 4.97003 13.2253 4.25421 15 4.06055V2H17V4.06055Z" fill="#001D21" />
</svg>

<svg xmlns="http://www.w3.org/2000/svg" fill="none" viewBox="0 0 32 32"><path fill="#001d21" d="M20 30h-8v-2h8zM28 26.6 26.6 28 4 5.4 5.4 4zM9 13.2v7.4L7 22v2h12.8l2 2H5v-5l2-1.5V13l.1-1.6zM17 4a9 9 0 0 1 8 9v6.5l2 1.5v1.8l-4-4V13a7 7 0 0 0-11.3-5.5L10.3 6A9 9 0 0 1 15 4V2h2z"/></svg>
